public/icons/svgs/brands/mixcloud.svg

<svg xmlns="http://www.w3.org/2000/svg" viewBox="0 0 640 512"><!--! Font Awesome Free 6.2.0 by @fontawesome - https://fontawesome.com License - https://fontawesome.com/license/free (Icons: CC BY 4.0, Fonts: SIL OFL 1.1, Code: MIT License) Copyright 2022 Fonticons, Inc. --><path d="M212.98 346.566H179.789V195.114L185.973 173.47H175.262L137.127 346.566H76.1069L37.7323 173.47H27.276L33.1913 195.114V346.566H0V165H65.6506L102.248 338.096H110.747L147.329 165H212.98L212.98 346.566ZM544.459 283.589L458.434 345.655V307.534L531.329 255.776L458.434 204.017V165.896L544.459 228.231H553.721L640 165.896V204.017L566.866 255.776L640 307.549V345.655L553.721 283.589H544.459ZM430.157 272.311H248.113V239.255H430.157V272.311Z"/></svg>

<svg xmlns="http://www.w3.org/2000/svg" viewBox="0 0 640 512"><!--! Font Awesome Free 7.0.0 by @fontawesome - https://fontawesome.com License - https://fontawesome.com/license/free (Icons: CC BY 4.0, Fonts: SIL OFL 1.1, Code: MIT License) Copyright 2025 Fonticons, Inc. --><path fill="currentColor" d="M213 346.6l-33.2 0 0-151.5 6.2-21.6-10.7 0-38.1 173.1-61 0-38.4-173.1-10.5 0 5.9 21.6 0 151.5-33.2 0 0-181.6 65.7 0 36.6 173.1 8.5 0 36.6-173.1 65.7 0 0 181.6zm331.5-63l-86 62.1 0-38.1 72.9-51.8-72.9-51.8 0-38.1 86 62.3 9.3 0 86.3-62.3 0 38.1-73.1 51.8 73.1 51.8 0 38.1-86.3-62.1-9.3 0zM430.2 272.3l-182 0 0-33.1 182 0 0 33.1z"/></svg>
